X: 2753
T: Banks Of The Ilen, The
R: reel
M: 4/4
K: Dmajor
AG|:(3FED FA d2fd|~d2fd ecAG|(3FED FA deff|1 ecAF G2AG:|2 ecAF G4||
|:~f3f g2fg|abaf gfed|[fd]3f g2fg|abaf g2fg|
abaf gfee|fed2 ecAG|(3FED FA deff|1 ecAF G4:|2 ecAF G2AG||

